ix/lamp-charge_outline.svg

<svg viewBox="0 0 24 24" fill="none" xmlns="http://www.w3.org/2000/svg" height="1em" width="1em">
  <path d="M12.0004 13.8499C11.8704 13.8499 11.7404 13.8199 11.6304 13.7499C11.2704 13.5399 11.1504 13.0799 11.3504 12.7299L12.2004 11.2499H11.3604C10.8604 11.2499 10.4504 11.0299 10.2304 10.6599C10.0104 10.2799 10.0304 9.8199 10.2804 9.3799L11.3504 7.5199C11.5604 7.1599 12.0204 7.0399 12.3704 7.2399C12.7304 7.4499 12.8504 7.9099 12.6504 8.2599L11.8004 9.7499H12.6404C13.1404 9.7499 13.5504 9.9699 13.7704 10.3399C13.9904 10.7199 13.9704 11.1799 13.7204 11.6199L12.6504 13.4799C12.5104 13.7199 12.2604 13.8499 12.0004 13.8499Z" fill="#292D32"/>
  <path d="M14.7701 19.7498H9.26012C8.82012 19.7498 8.26012 19.6998 7.89012 19.3198C7.53012 18.9498 7.54012 18.4898 7.55012 18.1798V17.2898C5.03012 15.6098 3.37012 12.6898 3.37012 9.9098C3.37012 7.2798 4.55012 4.8198 6.60012 3.1698C8.65012 1.5198 11.3401 0.899803 13.9701 1.4798C16.4701 2.0298 18.6301 3.6998 19.7501 5.9498C21.9201 10.3198 19.8301 15.0498 16.4901 17.2998V18.0498C16.5001 18.3398 16.5101 18.8698 16.1001 19.2898C15.7901 19.5898 15.3501 19.7498 14.7701 19.7498ZM9.04012 18.2398C9.09012 18.2398 9.16012 18.2498 9.25012 18.2498H14.7701C14.8701 18.2498 14.9401 18.2398 14.9801 18.2298C14.9801 18.1998 14.9801 18.1598 14.9801 18.1298V16.8698C14.9801 16.6098 15.1201 16.3598 15.3401 16.2298C18.3001 14.4398 20.2601 10.3498 18.3901 6.5998C17.4701 4.7498 15.6901 3.3798 13.6301 2.9298C11.4501 2.4498 9.22012 2.9598 7.52012 4.3298C5.82012 5.6998 4.85012 7.7298 4.85012 9.9098C4.85012 12.6898 6.77012 15.0898 8.67012 16.2398C8.90012 16.3798 9.03012 16.6198 9.03012 16.8798V18.2298C9.04012 18.2298 9.04012 18.2298 9.04012 18.2398Z" fill="#292D32"/>
  <path d="M15.5003 22.7499C15.4303 22.7499 15.3603 22.7399 15.2903 22.7199C13.1303 22.0999 10.8603 22.0999 8.70025 22.7199C8.30025 22.8299 7.89025 22.5999 7.77025 22.1999C7.65025 21.7999 7.89025 21.3899 8.29025 21.2699C10.7103 20.5799 13.2803 20.5799 15.7003 21.2699C16.1003 21.3799 16.3303 21.7999 16.2203 22.1999C16.1303 22.5399 15.8303 22.7499 15.5003 22.7499Z" fill="#292D32"/>
</svg>

<svg viewBox="0 0 24 24" fill="none" xmlns="http://www.w3.org/2000/svg" height="1em" width="1em">
  <path d="M12 13.85a.754.754 0 0 1-.65-1.12l.85-1.48h-.84c-.5 0-.91-.22-1.13-.59-.22-.38-.2-.84.05-1.28l1.07-1.86c.21-.36.67-.48 1.02-.28.36.21.48.67.28 1.02l-.85 1.49h.84c.5 0 .91.22 1.13.59.22.38.2.84-.05 1.28l-1.07 1.86c-.14.24-.39.37-.65.37Z" fill="#292D32"/>
  <path d="M14.77 19.75H9.26c-.44 0-1-.05-1.37-.43-.36-.37-.35-.83-.34-1.14v-.89c-2.52-1.68-4.18-4.6-4.18-7.38A8.62 8.62 0 0 1 6.6 3.17C8.65 1.52 11.34.9 13.97 1.48c2.5.55 4.66 2.22 5.78 4.47 2.17 4.37.08 9.1-3.26 11.35v.75c.01.29.02.82-.39 1.24-.31.3-.75.46-1.33.46Zm-5.73-1.51c.05 0 .12.01.21.01h5.52c.1 0 .17-.01.21-.02v-1.36c0-.26.14-.51.36-.64 2.96-1.79 4.92-5.88 3.05-9.63-.92-1.85-2.7-3.22-4.76-3.67-2.18-.48-4.41.03-6.11 1.4a7.127 7.127 0 0 0-2.67 5.58c0 2.78 1.92 5.18 3.82 6.33.23.14.36.38.36.64v1.35c.01 0 .01 0 .01.01Zm6.46 4.51c-.07 0-.14-.01-.21-.03-2.16-.62-4.43-.62-6.59 0a.76.76 0 0 1-.93-.52c-.12-.4.12-.81.52-.93 2.42-.69 4.99-.69 7.41 0 .4.11.63.53.52.93-.09.34-.39.55-.72.55Z" fill="#292D32"/>
</svg>
